app/img/logo.svg

<svg width="150" height="20" viewBox="0 0 150 20" fill="none" xmlns="http://www.w3.org/2000/svg">
<path d="M36.5801 2.97079H39.7164V19.4245H42.7164V2.97079H45.8528V0.228516H36.5801V2.97079ZM59.7741 19.4245C59.4741 18.7115 59.4468 18.0259 59.4468 17.0935V14.1319C59.4468 12.13 58.9559 10.6766 57.4559 10.0459C58.7922 9.41514 59.4195 8.12627 59.4195 6.15183V4.64358C59.4195 1.68192 58.0831 0.228516 54.9741 0.228516H50.4468V19.4245H53.4468V11.609H54.4832C55.8468 11.609 56.4468 12.2671 56.4468 14.0496V17.0661C56.4468 18.6292 56.5559 18.9308 56.7195 19.4245H59.7741ZM54.8922 2.97079C55.9559 2.97079 56.4195 3.5741 56.4195 4.94523V6.8374C56.4195 8.37308 55.7377 8.86669 54.6195 8.86669H53.4468V2.97079H54.8922ZM71.347 0.228516H66.9561L63.9016 19.4245H66.6561L67.1743 15.9418H70.8561L71.3743 19.4245H74.4016L71.347 0.228516ZM69.0016 3.62894L70.447 13.3366H67.5561L69.0016 3.62894ZM79.0714 19.4245H83.8169C86.8169 19.4245 88.2896 17.7517 88.2896 14.6803V4.97266C88.2896 1.90131 86.8169 0.228516 83.8169 0.228516H79.0714V19.4245ZM83.7624 2.97079C84.7169 2.97079 85.2896 3.4644 85.2896 4.83554V14.8174C85.2896 16.1886 84.7169 16.6822 83.7624 16.6822H82.0715V2.97079H83.7624ZM96.477 2.97079H101.659V0.228516H93.477V19.4245H101.659V16.6822H96.477V11.0605H100.595V8.31823H96.477V2.97079ZM106.791 19.4245H114.727V16.6822H109.791V0.228516H106.791V19.4245ZM119.305 19.4245H122.305V0.228516H119.305V19.4245ZM127.58 0.228516V2.97079H133.007L127.307 16.737V19.4245H136.089V16.6822H130.389L136.089 2.91595V0.228516H127.58ZM144.138 2.97079H149.32V0.228516H141.138V19.4245H149.32V16.6822H144.138V11.0605H148.256V8.31823H144.138V2.97079Z" fill="#07061E"/>
<path d="M15.7017 14.7193L9.09009 5.84717L2.47852 14.7193" stroke="#4671FF" stroke-width="4" stroke-linecap="round" stroke-linejoin="round"/>
</svg>

<svg width="150" height="20" fill="none" xmlns="http://www.w3.org/2000/svg"><path d="M36.58 2.97h3.136v16.454h3V2.971h3.137V.229H36.58V2.97zm23.194 16.454c-.3-.712-.327-1.398-.327-2.33v-2.962c0-2.002-.491-3.455-1.991-4.086 1.336-.63 1.963-1.92 1.963-3.894V4.644c0-2.962-1.336-4.415-4.445-4.415h-4.527v19.195h3V11.61h1.036c1.364 0 1.964.658 1.964 2.44v3.017c0 1.563.109 1.865.272 2.358h3.055zM54.892 2.971c1.064 0 1.527.603 1.527 1.974v1.892c0 1.536-.681 2.03-1.8 2.03h-1.172V2.97h1.445zM71.347.229h-4.39l-3.055 19.195h2.754l.518-3.482h3.682l.518 3.482h3.028L71.347.23zm-2.345 3.4l1.445 9.708h-2.89l1.445-9.708zm10.07 15.795h4.745c3 0 4.473-1.672 4.473-4.744V4.973c0-3.072-1.473-4.744-4.473-4.744H79.07v19.195zm4.69-16.453c.955 0 1.528.493 1.528 1.865v9.981c0 1.372-.573 1.865-1.528 1.865h-1.69V2.971h1.69zm12.715 0h5.182V.229h-8.182v19.195h8.182v-2.742h-5.182v-5.621h4.118V8.317h-4.118V2.971zm10.314 16.453h7.936v-2.742h-4.936V.23h-3v19.195zm12.514 0h3V.23h-3v19.195zM127.58.23V2.97h5.427l-5.7 13.766v2.688h8.782v-2.743h-5.7l5.7-13.766V.229h-8.509zm16.558 2.742h5.182V.229h-8.182v19.195h8.182v-2.742h-5.182v-5.621h4.118V8.317h-4.118V2.971z" fill="#07061E"/><path d="M15.702 14.72L9.09 5.846 2.48 14.72" stroke="#4671FF" stroke-width="4" stroke-linecap="round" stroke-linejoin="round"/></svg>
